X:1
T: Killicrankie
C:
R:Reel
Q: 232
K:D
M:4/4
L:1/8
FG|A3B A2 F2|AA FB A3F|AG FE DE FG|A4 A2 FA|B3d B2 AB|d2 B2 B2 ((3ABc)|d3e f2 ed|B4 B2 fa|
b2 af a2 fe|f2 ed e2 f2|d3B AB dF|A4 A2 dc|B2 AB d2 Bd|e2 e2 f3e|d3B AB dF|E4 D2 fg|
a3b a2 f2|af ab a3f|ag fe de fg|a4 a2 fa|b3d' b2 a2|ba bd' b2 a2|b2 af e2 fa|d'4 d'2 fa|
ba fb af ea|gf ed e2 f2|d3B AB dF|A4 A2 dc|B2 AB d2 Bd|e2 e2 f3e|d3B AB dF|E4 D2||
